public/art/floors/stone-tile-2.svg

<svg xmlns="http://www.w3.org/2000/svg" width="32" height="32" shape-rendering="crispEdges" viewBox="0 -0.5 16 16"><path stroke="#b7c8cc" d="M0 0h3m9 0h3M0 1h1m13 0h1M0 2h1m13 0h1M0 6h3m-3 5h1m13 0h1M0 12h1m13 0h1M0 13h3m9 0h3"/><path stroke="#8ea5b2" d="M3 0h5m1 0h3M1 1h7m1 0h5M1 2h7m1 0h5M0 3h8m1 0h6M0 4h8m1 0h6M0 5h15M3 6h12M5 7h10M0 8h15M0 9h15M0 10h15M1 11h13M1 12h13M3 13h9"/><path stroke="#232a33" d="M8 0h1M8 1h1m6 0h1m-1 1h1m-1 1h1m-1 1h1M0 7h2m13 2h1m-1 1h1m-1 1h1m-1 1h1m-1 1h1M1 15h4m4 0h5"/><path stroke="#3e4a59" d="M15 0h1M8 2h1M8 3h1M8 4h1m6 1h1m-1 1h1M2 7h3m10 0h1m-1 1h1m-1 6h1M0 15h1m4 0h4m5 0h2"/><path stroke="#66707f" d="M0 14h15"/></svg>

<svg xmlns="http://www.w3.org/2000/svg" width="32" height="32" viewBox="0 -0.5 16 16" shape-rendering="crispEdges">
<path stroke="#b7c8cc" d="M0 0h3M12 0h3M0 1h1M14 1h1M0 2h1M14 2h1M0 6h3M0 11h1M14 11h1M0 12h1M14 12h1M0 13h3M12 13h3" />
<path stroke="#8ea5b2" d="M3 0h5M9 0h3M1 1h7M9 1h5M1 2h7M9 2h5M0 3h8M9 3h6M0 4h8M9 4h6M0 5h15M3 6h12M5 7h10M0 8h15M0 9h15M0 10h15M1 11h13M1 12h13M3 13h9" />
<path stroke="#232a33" d="M8 0h1M8 1h1M15 1h1M15 2h1M15 3h1M15 4h1M0 7h2M15 9h1M15 10h1M15 11h1M15 12h1M15 13h1M1 15h4M9 15h5" />
<path stroke="#3e4a59" d="M15 0h1M8 2h1M8 3h1M8 4h1M15 5h1M15 6h1M2 7h3M15 7h1M15 8h1M15 14h1M0 15h1M5 15h4M14 15h2" />
<path stroke="#66707f" d="M0 14h15" />
</svg>
